X:1
T:The Glorious Gates of Righteousness
T:Text: Psalm 118:19-23, 26, 29; vers. Psalter, 1912, alt. Tune: Lowell Mason, 1837
T:CM with repeat ZERAH www.hymnary.org/text/the_glorious_gates_of_righteousness
T:The Glorious Gates of Righteousness
T:This hymn is in the public domain. You may freely use this score for personal and congregational worship. If you reproduce the score, please credit Hymnary.org as the source. 
T:This hymn is in the public domain. You may freely use this score for personal and congregational worship. If you reproduce the score, please credit Hymnary.org as the source. 
T:This hymn is in the public domain. You may freely use this score for personal and congregational worship. If you reproduce the score, please credit Hymnary.org as the source. 
Z:This hymn is in the public domain. You may freely use this score for personal and congregational worship. If you reproduce the score, please credit Hymnary.org as the source.
%%score ( 1 2 ) ( 3 4 )
L:1/8
M:3/4
K:Bb
V:1 treble nm="SOPRANO ALTO" snm="S. A."
V:2 treble 
V:3 bass nm="TENOR BASS" snm="T. B."
V:4 bass 
V:1
"^1""^2""^3""^4""^5" F2 | B>B B2 D2 | C>F F2 F2 | F3 D EC | D4 F2 | G>G B2 G2 | F>B B2 F2 | %7
w: The|glo- rious gates of|right- eous- ness throw|o- pen un- to|me, and|I will come to|them with praise and|
w: This|is your tem- ple|gate, O LORD: the|just shall en- ter|there. My|Sav- ior, I will|give you thanks, for|
w: The|stone re- ject- ed|and de- spised is|now the cor- ner-|stone. How|won- drous are the|ways of God, un-|
w: Ho-|san- na! Ev- er|blest is he who|comes in God's own|name. The|bless- ing of God's|ho- ly house up-|
w: O|praise the LORD, for|he is good; let|all in heaven a-|bove and|all his saints on|earth pro- claim his|
 G3 G BG | F3 B, DF |1 B3 F Bc | d3 d dd | e4 A2 | B4 x2 |] %13
w: en- ter thank- ful-|ly, and I will|come to them with|praise and en- ter|thank- ful-|ly.|
w: you have heard my|prayer; My Sav- ior,|I will give you|thanks, for you have|heard my|prayer.|
w: fath- omed and un-|known; how won- drous|are the ways of|God, un- fath- omed|and un-|known.|
w: on you we pro-|claim; the bless- ing|of God's ho- ly|house up- on you|we pro-|claim.|
w: ev- er- last- ing|love; let all his|saints on earth pro-|claim his ev- er|last- ing|love.|
V:2
 D2 | D>D D2 B,2 | A,>C C2 D2 | D3 B, CA, | B,4 D2 | E>E G2 E2 | D>D D2 D2 | E3 E GE | D3 B, DF |1 %9
 x3 F FF | F3 G GG | G4 F2 | F4 x2 |] %13
V:3
 F,2 | F,>F, F,2 F,2 | F,>A, A,2 B,2 | B,3 F, F,F, | F,4 B,2 | B,>B, B,2 B,2 | B,>F, F,2 B,2 | %7
 B,3 B, B,B, | B,3 B,, D,F, |1 B,3 F, F,A, | B,3 =B, B,B, | C4 E2 | D4 x2 |] %13
V:4
 B,,2 | B,,>B,, B,,2 B,,D, | F,>F, F,2 B,,D, | F,3 F, F,[F,,F,] | B,,4 B,,2 | E,>E, E,2 E,2 | %6
 B,,>B,, B,,2 B,,2 | E,3 E, E,E, | B,,3 B,, D,F, |1 B,3 F, D,F, | B,3 G, G,G, | C,4 F,2 | %12
 B,,4 x2 |] %13

